.local/share/icons/Gruvbox-Plus-Dark/mimetypes/scalable/text-x-tex.svg

<svg width="256" height="256" viewBox="0 0 256 256" fill="none" xmlns="http://www.w3.org/2000/svg">
<g opacity="0.4" filter="url(#filter0_f)">
<path d="M55.0839 15.5636H155.608L216.009 75.7129L216.011 224.609C216.011 233.52 208.749 240.737 199.838 240.737H55.0838C46.1734 240.737 39 233.564 39 224.654V31.6474C39 22.737 46.1734 15.5636 55.0838 15.5636H55.0839Z" fill="#282828"/>
</g>
<path d="M55.0839 15H155.608L216.009 75.1493L216.011 224.045C216.011 232.956 208.749 240.174 199.838 240.174H55.0838C46.1734 240.174 39 233 39 224.09V31.0838C39 22.1734 46.1734 15 55.0838 15H55.0839Z" fill="#ebdbb2"/>
<path fill-rule="evenodd" clip-rule="evenodd" d="M155.608 20.3191H55.0839C49.1112 20.3191 44.3191 25.1111 44.3191 31.0838V224.09C44.3191 230.063 49.1111 234.855 55.0838 234.855H199.838C205.83 234.855 210.692 229.999 210.692 224.046V75.1493L155.608 20.3191ZM155.608 15H55.0839C46.1735 15 39 22.1734 39 31.0838V224.09C39 233 46.1734 240.174 55.0838 240.174H199.838C208.749 240.174 216.011 232.956 216.011 224.045L216.009 75.1493L155.608 15Z" fill="url(#paint0_linear)"/>
<path d="M141.638 96V98.0935H143.026C146.721 98.0935 147.996 98.574 149.273 100.462L161.625 119.29L150.521 135.608C149.581 136.959 147.591 140.07 140.805 140.07V142.164L148.3 141.885C150.785 141.885 154.487 141.962 156.905 142.164V140.07C153.815 140.003 152.604 138.077 152.604 136.864C152.604 136.256 152.828 136.071 153.297 135.329L162.876 121.105L173.424 137.281C173.558 137.55 173.842 137.778 173.842 137.98C173.842 138.787 172.291 140.003 169.401 140.07V142.164C171.752 141.962 176.702 141.885 179.254 141.885L188 142.164V140.07H186.749C183.257 140.07 181.776 139.653 180.364 137.56L166.207 116.084L175.371 102.556C176.846 100.395 179.244 98.1607 185.224 98.0935V96L177.729 96.2789C175.04 96.2789 171.809 96.205 169.123 96V98.0935C171.809 98.1607 173.287 99.6056 173.287 101.161C173.287 101.833 173.2 102.092 172.732 102.835L164.956 114.132L156.35 101.161C156.217 100.96 155.936 100.456 155.936 100.187C155.936 99.3737 157.347 98.1607 160.237 98.0935V96C157.885 96.2016 152.935 96.2789 150.384 96.2789L141.638 96ZM69.2509 96L68 111.202H69.6656C70.6054 100.331 71.5954 98.0935 81.7429 98.0935C82.9536 98.0935 84.6794 98.0935 85.355 98.2312C86.7631 98.5001 86.8801 99.1889 86.8801 100.741V137.086C86.8801 139.381 86.8567 140.574 79.7997 140.433H77.0237V142.527C79.7796 142.325 86.7029 142.248 89.7933 142.248C92.8836 142.248 99.8103 142.325 102.563 142.527V140.433H99.7868C92.7298 140.433 92.8468 139.381 92.8468 137.086V100.741C92.8468 99.3939 92.7465 98.5034 93.9572 98.2312C94.6964 98.0968 96.566 98.0935 97.8436 98.0935C107.991 98.0935 108.981 100.331 109.921 111.202H111.587L110.339 96H69.2509ZM105.299 113.783V115.876H106.964C112.138 115.876 112.239 116.515 112.239 118.944V154.697C112.239 157.13 112.138 157.907 106.964 157.907H105.299V160H144.022L146.939 142.567H145.133C143.454 152.964 141.979 157.907 130.416 157.907H121.533C118.376 157.907 118.202 157.345 118.202 155.118V136.962H124.172C130.691 136.962 131.53 139.17 131.53 144.909H133.196V126.918H131.53C131.53 132.725 130.691 134.868 124.172 134.868H118.202V118.524C118.202 116.296 118.376 115.876 121.533 115.876H130.142C140.423 115.876 142.253 119.462 143.33 128.847H144.995L143.052 113.783H105.299Z" fill="url(#paint1_linear)"/>
<path opacity="0.25" d="M155.608 17V61.2306C155.608 70.141 162.867 77.1605 171.777 77.1605L216.009 77.1493V75.1493L155.608 17Z" fill="#282828"/>
<path d="M155.608 15V59.2306C155.608 68.141 162.867 75.1605 171.777 75.1605L216.009 75.1493L155.608 15Z" fill="url(#paint2_linear)"/>
<defs>
<filter id="filter0_f" x="23.8778" y="0.441412" width="207.255" height="255.418" filterUnits="userSpaceOnUse" color-interpolation-filters="sRGB">
<feFlood flood-opacity="0" result="BackgroundImageFix"/>
<feBlend mode="normal" in="SourceGraphic" in2="BackgroundImageFix" result="shape"/>
<feGaussianBlur stdDeviation="7.5611" result="effect1_foregroundBlur"/>
</filter>
<linearGradient id="paint0_linear" x1="127.506" y1="245.178" x2="127.506" y2="15" gradientUnits="userSpaceOnUse">
<stop offset="0.0217391" stop-color="#fe8019"/>
<stop offset="1" stop-color="#cc241d"/>
</linearGradient>
<linearGradient id="paint1_linear" x1="128" y1="161.422" x2="128" y2="96" gradientUnits="userSpaceOnUse">
<stop offset="0.0217391" stop-color="#fe8019"/>
<stop offset="1" stop-color="#cc241d"/>
</linearGradient>
<linearGradient id="paint2_linear" x1="185.808" y1="76.4974" x2="185.808" y2="15" gradientUnits="userSpaceOnUse">
<stop offset="0.0217391" stop-color="#fe8019"/>
<stop offset="1" stop-color="#cc241d"/>
</linearGradient>
</defs>
</svg>

<svg width="256" height="256" fill="none" version="1.1" viewBox="0 0 256 256" xmlns="http://www.w3.org/2000/svg">
  <path d="m55.08 15h100.5l60.4 60.15 2e-3 148.9c0 8.911-7.262 16.13-16.17 16.13h-144.8c-8.91 0-16.08-7.174-16.08-16.08v-193c0-8.91 7.173-16.08 16.08-16.08h1e-4z" fill="#ebdbb2"/>
  <path d="m155.6 20.32h-100.5c-5.973 0-10.76 4.792-10.76 10.76v193c0 5.973 4.792 10.76 10.76 10.76h144.8c5.992 0 10.85-4.856 10.85-10.81v-148.9l-55.08-54.83zm0-5.319h-100.5c-8.91 0-16.08 7.173-16.08 16.08v193c0 8.91 7.173 16.08 16.08 16.08h144.8c8.911 0 16.17-7.218 16.17-16.13l-2e-3 -148.9-60.4-60.15z" clip-rule="evenodd" fill="url(#paint0_linear)" fill-rule="evenodd"/>
  <path d="m141.6 96v2.094h1.388c3.695 0 4.97 0.4805 6.247 2.368l12.35 18.83-11.1 16.32c-0.94 1.351-2.93 4.462-9.716 4.462v2.094l7.495-0.279c2.485 0 6.187 0.077 8.605 0.279v-2.094c-3.09-0.067-4.301-1.993-4.301-3.206 0-0.608 0.224-0.793 0.693-1.535l9.579-14.22 10.55 16.18c0.134 0.269 0.418 0.497 0.418 0.699 0 0.807-1.551 2.023-4.441 2.09v2.094c2.351-0.202 7.301-0.279 9.853-0.279l8.746 0.279v-2.094h-1.251c-3.492 0-4.973-0.417-6.385-2.51l-14.16-21.48 9.164-13.53c1.475-2.161 3.873-4.395 9.853-4.462v-2.094l-7.495 0.2789c-2.689 0-5.92-0.0739-8.606-0.2789v2.094c2.686 0.0672 4.164 1.512 4.164 3.068 0 0.672-0.087 0.931-0.555 1.674l-7.776 11.3-8.606-12.97c-0.133-0.201-0.414-0.705-0.414-0.974 0-0.8133 1.411-2.026 4.301-2.094v-2.094c-2.352 0.2016-7.302 0.2789-9.853 0.2789l-8.746-0.2789zm-72.39 0-1.251 15.2h1.666c0.9398-10.87 1.93-13.11 12.08-13.11 1.211 0 2.936 0 3.612 0.1377 1.408 0.2689 1.525 0.9577 1.525 2.51v36.34c0 2.295-0.0234 3.488-7.08 3.347h-2.776v2.094c2.756-0.202 9.679-0.279 12.77-0.279 3.09 0 10.02 0.077 12.77 0.279v-2.094h-2.776c-7.057 0-6.94-1.052-6.94-3.347v-36.34c0-1.347-0.1003-2.238 1.11-2.51 0.7392-0.1344 2.609-0.1377 3.886-0.1377 10.15 0 11.14 2.238 12.08 13.11h1.666l-1.248-15.2h-41.09zm36.05 17.78v2.093h1.665c5.174 0 5.275 0.639 5.275 3.068v35.75c0 2.433-0.101 3.21-5.275 3.21h-1.665v2.093h38.72l2.917-17.43h-1.806c-1.679 10.4-3.154 15.34-14.72 15.34h-8.883c-3.157 0-3.331-0.562-3.331-2.789v-18.16h5.97c6.519 0 7.358 2.208 7.358 7.947h1.666v-17.99h-1.666c0 5.807-0.839 7.95-7.358 7.95h-5.97v-16.34c0-2.228 0.174-2.648 3.331-2.648h8.609c10.28 0 12.11 3.586 13.19 12.97h1.665l-1.943-15.06h-37.75z" fill="url(#paint1_linear)"/>
  <path d="m155.6 17v44.23c0 8.91 7.259 15.93 16.17 15.93l44.23-0.0112v-2l-60.4-58.15z" fill="#282828" opacity=".25"/>
  <path d="m155.6 15v44.23c0 8.91 7.259 15.93 16.17 15.93l44.23-0.0112-60.4-60.15z" fill="url(#paint2_linear)"/>
  <defs>
    <linearGradient id="paint0_linear" x1="127.5" x2="127.5" y1="245.2" y2="15" gradientUnits="userSpaceOnUse">
      <stop stop-color="#fe8019" offset=".02174"/>
      <stop stop-color="#cc241d" offset="1"/>
    </linearGradient>
    <linearGradient id="paint1_linear" x1="128" x2="128" y1="161.4" y2="96" gradientUnits="userSpaceOnUse">
      <stop stop-color="#fe8019" offset=".02174"/>
      <stop stop-color="#cc241d" offset="1"/>
    </linearGradient>
    <linearGradient id="paint2_linear" x1="185.8" x2="185.8" y1="76.5" y2="15" gradientUnits="userSpaceOnUse">
      <stop stop-color="#fe8019" offset=".02174"/>
      <stop stop-color="#cc241d" offset="1"/>
    </linearGradient>
  </defs>
</svg>
